!!!!SEGMENT: 065-1-BH-001-violino.krn
!!!COM: Chopin, Fryderyk
!!!OTL: Sonata
!!!OPS: Op. 65
!!!PTL: Sonate pour Piano et Violoncelle
!!!PPR: Breitkopf & Härtel
!!!OMV: 1
!!!PPP: Leipzig
!!!NIFC-rismID: PL-Wbfc 4692/n
!!!NIFC-shelfmark: PL-Wbfc 4692/n
!!!OMD: Allegro moderato.
!!!system-decoration: {(s1)}
**kern	**fing	**dynam
*part1	*part1	*part1
*I"SONATE.	*	*
*staff1	*	*
*clefG2	*	*
*k[b-e-]	*	*
*M4/4	*	*
*met(c)	*	*
*>[A,B,B1,B,B2,C,D,E]	*	*
*>A	*	*
4r	.	.
=1	=1	=1
!LO:TX:a:t=P:'1' in the middle of the bar:problem	!	!
!LO:TX:a:B:t=1	!	!
1r	.	.
=2!|:	=2!|:	=2!|:
*>B	*	*
!LO:TX:a:t=P:in the source repetition mark before 6 bars break:rendering problem:problem	!	!
1r	.	.
=3	=3	=3
1r	.	.
=4	=4	=4
1r	.	.
=5	=5	=5
1r	.	.
=6	=6	=6
1r	.	.
=7	=7	=7
1r	.	.
=8	=8	=8
(<8.aL	2	f
16b-Jk)	.	.
(>2a;>^<	.	.
!LO:TX:b:Bi:t=dolce	!	!
8.ddL	.	.
16ccJk)	.	.
=9	=9	=9
(<4b-/	.	.
4g	.	.
4f#X	.	.
8.gL)	.	.
16e-Jk	.	.
=10	=10	=10
(<4.d	.	.
8qf/	.	.
8e-	.	.
4d)	.	.
4d	.	.
=11	=11	=11
(<4d	.	<
8.eL	.	.
16f#XJk)	.	.
(>4g	.	.
4dd)	.	.
!!LO:LB:g=original
=12	=12	=12
(>4.dd	.	.
8ee-	.	.
4cc)	.	[
4g	.	.
=13	=13	=13
(>4dd	.	.
!LO:TX:a:t=P:note-head-side tuplet number:problem	!	!
12ddL	.	<
12ff	.	.
>12ee-J)	.	.
(>4cc	.	<
4ee-)	.	.
=14	=14	=14
(>4.ee-	.	[
>8ff)	.	.
(>4dd-X	.	.
4cc)	.	.
=15	=15	=15
(>8.bL	.	<
16ggJk)	.	[
[>4gg	.	f
8ggL]	.	.
(>16ffL	.	.
16ee-JJ	.	.
16ddnLL	.	.
16cc	.	.
16dd	.	.
16ee-JJ)	.	.
=16	=16	=16
(>8.ddL	.	<
16dddJk)	.	[
[>4ddd	.	.
8dddL]	.	.
(>16cccL	.	.
16bb-JJ	.	.
16aaLL	.	.
16gg	.	.
16aa	.	.
16bb-JJ)	.	.
!!LO:LB:g=original
=17	=17	=17
(>16aaLL	.	.
16gg	.	.
16aa	.	.
16bb-JJ)	.	.
(>16aaLL	.	.
16gg	.	.
16dd	.	.
16b-JJ)	.	.
(<16aLL	.	.
16g	.	.
16a	.	.
16b-JJ)	.	.
(<16f#XLL	.	.
16a	.	.
16g	.	.
16cJJ)	.	.
=18	=18	=18
4d	.	ff
4r	.	.
2r	.	.
=19	=19	=19
4ddd 4dd 4d	.	.
4r	.	.
2r	.	.
=20	=20	=20
4gg 4bn 4d 4G	.	.
4r	.	.
4g	.	p
4g	.	.
=21	=21	=21
(<4g	.	.
8b-L	.	.
8a-XJ)	.	.
(>8a-L	.	.
8cc	.	.
8ee-	.	.
8ee-'>J)	.	.
=22	=22	=22
(>4ee-	.	.
4ff	.	.
4ee-	.	.
4dd-X)	.	.
!!LO:LB:g=original
=23	=23	=23
(>[>2cc	.	.
8ccL]	.	.
8cc#X	.	.
8ddn	.	.
8aJ)	.	.
=24	=24	=24
[>2b-	.	.
8b-L]	.	.
(<8a	.	.
8b-	.	.
8f#XJ)	.	.
=25	=25	=25
(<8f#XL	.	.
8gJ	.	.
4d	.	<
8dL)	.	.
(<8g	.	.
8b-	.	.
8cc#XJ)	.	[[
=26	=26	=26
(>4dd	.	.
8ccnL	.	.
8b-J)	.	.
(<8aL	.	<
8g	.	.
8b-	.	.
8ddJ)	.	[
=27	=27	=27
(>2ff	.	[
4ee-)	.	.
(>8ddL	.	.
8ccJ)	.	.
=28	=28	=28
[>2dd	.	.
8ddL]	.	.
8gg	.	<
8ff	.	.
8ee-J	.	.
!!LO:LB:g=original
=29	=29	=29
(>8.ddL	.	.
16ee-Jk)	.	.
[>4dd	.	.
8ddL]	.	.
8b	.	.
8dd	.	.
8ccJ	.	.
=30	=30	=30
4ff	.	.
2aa-X	.	f
8.a-XL	.	.
16a-Jk	.	.
=31	=31	=31
(<16qqgLL	.	.
16qqa-X	.	.
16qqb-JJ	.	.
(<4a-)	.	.
8g)	.	.
8dd	.	.
(>8cc#XL	.	.
8dd)	.	.
(>8.gg	.	.
16ddJk)	.	.
=32	=32	=32
4ee-	.	.
!LO:TX:a:t=P:diminuendolike accent:problem	!	!
(>8ee-^<L	.	.
8f#XJ)	.	.
(<8f#L	.	.
8ccJ)	.	.
(<8ccL	.	.
8dJ)	.	.
=33	=33	=33
(>8b-L	.	.
>8ee-J)	.	.
(>8ee-L	.	.
8f#XJ)	.	.
(<8f#L	.	.
8ccJ)	.	.
(<8ccL	.	.
8dJ)	.	.
!!LO:LB:g=original
=34	=34	=34
!LO:TX:a:t=P:note-head-side tuplet number:problem	!	!
(>12ccL	.	.
12.b-	.	.
24aJk)	.	.
(<12aL	.	.
12.g	.	.
24fnJk)	.	.
(<12fL	.	.
12.e-	.	.
24dJk)	.	.
(<12dL	.	.
12.c	.	.
24B-Jk)	.	.
=35	=35	=35
4A	.	.
8a^< 8AL	.	.
(<24gL	.	.
24f	.	.
24enJJ	.	.
4d)	.	.
8g^< 8GL	.	.
(<24fL	.	.
24e-X	.	.
24dJJ	.	.
=36	=36	=36
8.cL)	.	f
(>16gJk	.	.
12ccL	.	.
12ee-	.	.
12ggJ)	.	.
[<2c	.	.
=37	=37	=37
12cL]	.	.
(>12g	.	.
12ccJ	.	.
12ee-L	.	.
12gg	.	.
12cccJ)	.	.
[<2c	.	.
=38	=38	=38
8.cL]	.	.
(>16ccJk	.	.
12ee-L	.	.
12aa-X	.	.
12eee-J)	.	.
4.e-	.	.
8c	.	.
!!LO:LB:g=original
=39	=39	=39
8cL	.	<
8c-XJ	.	.
4B-	.	[[
(<12B-L	.	.
12g-X	.	.
12dd-XJ)	.	.
!LO:TX:a:t=P:mixed beam:problem	!	!
8.dd-L\	.	.
16B-Jk/	.	.
=40	=40	=40
*	*^	*
8cL	.	.	.
8fJ	.	.	.
(<16dLL	.	2	.
16e-	.	.	.
16f	.	.	.
16e-JJ	.	.	.
4d)	.	.	.
4bn 4d 4G	.	.	.
=41	=41	=41	=41
4cc 4e- 4G	.	.	.
(<16dLL	.	2	.
16e-	.	.	.
16f	.	.	.
16e-JJ	.	.	.
4d)	.	.	.
(<16gLL	.	.	.
16f	.	.	.
16e-	.	.	.
16dJJ	.	.	.
*	*v	*v	*
=42	=42	=42
2d-X)	.	.
4r	.	.
(>4dd-X	.	.
=43	=43	=43
4g	.	.
16qqa-X/LL	.	.
16qqg/	.	.
16qqf#X/JJ	.	.
8.gL	.	.
16g#XJk)	.	.
(>4an	.	.
8.aaL	.	>
16ggnJk)	.	.
!!LO:LB:g=original
=44	=44	=44
(>4ff#X 4a	.	.
!LO:S:s=1:note:problem:note-level slur	!	!
4dd 4f#X)	.	p
(>4cc#X 4f#	.	.
8.ddL 8.f#	.	.
16aJk 16f#)	.	.
=45	=45	=45
*^	*	*
2.a	(<4.d	.	.
.	8e-X	.	.
.	4d)	.	.
4r	4ryy	.	.
*v	*v	*	*
=46	=46	=46
(>4gg 4b-	.	<
4ee- 4g)	.	.
(>4dd 4g	.	.
8.ee-L 8.g	.	.
16b-Jk)	.	.
=47	=47	=47
*^	*	*
2.b-	(<4.e-	.	.
.	8f	.	.
.	4e-)	.	.
4r	4ryy	.	.
*v	*v	*	*
=48	=48	=48
(>4aa-X	.	f
4ee-)	.	.
4ff	.	.
(>8.ee-L	.	.
16dd-XJk)	.	.
=49	=49	=49
(>8.ccL	.	.
16dd-XJk)	.	.
(>[>4ee-	.	.
8ee-L]	.	.
8dd-J)	.	.
!LO:TX:a:t=P:note-head-side tuplet number:problem	!	!
(>12dd-L	.	.
12cc	.	.
12b-J)	.	.
!!LO:LB:g=original
=50	=50	=50
(<8b-L	.	.
[<8e-J	.	.
12e-L]	.	.
12f	.	.
12gJ)	.	.
(>8a-XL	.	.
8b-	.	.
8.cc	.	.
16cc'>Jk)	.	.
=51	=51	=51
(>4cc	.	.
4dn)	.	.
4r	.	.
4d	.	.
=52	=52	=52
(<[<4d	.	.
12dL]	.	<
12e	.	.
12f#XJ)	.	.
(<8gL	.	.
8a	.	.
8.b-	.	.
16b-'<Jk)	.	[
=53	=53	=53
!LO:TX:b:Bi:t=cresc._:problem:dynamics with extention lines	!	!
!	!	!LO:HP:b:Bi:t=cresc.:ext=ud
(<4b-/	.	<
4a)	.	.
(<8eL	.	.
8f#X	.	.
8.g	.	.
16g'<Jk)	.	.
=54	=54	=54
(<8gL	.	.
8f#XJ)	.	.
(>[>4cc	.	.
8ccL]	.	.
8dd	.	.
8.ee-	.	.
16ee-'>Jk)	.	.
=55	=55	=55
(>4ee-	.	.
4d)	.	.
4r	.	.
(>8.ee-L	.	.
16ee-'>Jk)	.	.
!!LO:LB:g=original
=56	=56	=56
(>4ee-	.	.
4d)	.	.
4r	.	.
4ee-	.	[
=57	=57	=57
(>4ee-	.	>
8.ddL	.	>
16aJk)	.	.
(<16b-LL	.	] p
16g	.	.
16d	.	.
16GJJ	.	.
16ALL	.	.
16e	.	.
16f#X	.	.
16eJJ)	.	.
=58	=58	=58
(<8dL	.	.
16c#XL	.	.
16dJJ	.	.
16eLL	.	.
16f#X	.	.
16g	.	.
16aJJ)	.	.
(<16b-LL	.	.
16g	.	.
16d	.	.
16GJJ	.	.
16ALL	.	.
16e	.	.
16f#	.	.
16eJJ)	.	.
=59	=59	=59
(>8dL	.	.
8aJ	.	.
!LO:TX:a:t=P:note-head-side tuplet number:problem	!	!
12b-L	.	>
12a	.	.
12dJ	.	.
12aL	.	.
12dd	.	.
12ff#XJ	.	.
12aa\L	.	.
12dd	0	.
12dddJ)	0	.
=60	=60	=60
2.ddd	.	.
4r	.	.
=61	=61	=61
1r	.	.
=62	=62	=62
1r	.	.
=63	=63	=63
1r	.	.
=64	=64	=64
1r	.	.
!!LO:PB:g=original
=65	=65	=65
2ff	.	p
(>4ff'>	.	.
4ff'>)	.	.
=66	=66	=66
(>1ff	.	.
=67	=67	=67
4ee-	.	.
4f#X	.	.
4g	.	.
4ee-)	.	.
=68	=68	=68
4qqdd/	.	.
2cc	.	.
2r	.	.
=69	=69	=69
!LO:TX:a:t=P:'1' in the middle of the bar:problem	!	!
!LO:TX:a:B:t=1	!	!
1r	.	.
=70	=70	=70
4r	.	.
(<8BL	.	.
8cJ	.	.
4d	.	.
8e-L	.	.
8dJ)	.	.
=71	=71	=71
!	!	!LO:HP:a
(<8dL	.	<
8cJ	.	.
2g)	.	[[
4r	.	.
=72	=72	=72
!	!	!LO:HP:a
4r	.	<
(<8c#XL	.	.
8dJ	.	.
4e	.	.
8fL	.	.
8eJ)	.	.
=73	=73	=73
(<8eL	.	.
8dJ	.	.
4.a)	.	[
(<8aL	.	.
8b-	.	.
8aJ)	.	.
!!LO:LB:g=original
=74	=74	=74
(<8gL	.	.
8aJ	.	.
4.f)	.	.
(<8fL	.	.
8g	.	.
8aJ)	.	.
=75	=75	=75
(<8b-/	.	.
4e-)	.	.
[<8c#X	.	.
8c#]	.	.
4d	.	.
8e	.	.
=76	=76	=76
(<8.eL	.	.
16fk	.	.
8.d	.	.
16gJk)	.	.
(>4f	.	<
4ee-X)	.	[
=77	=77	=77
(>4.dd	.	.
8cc#X)	.	<
(>8ccL	.	.
8b	.	.
8b-X	.	.
8ddJ)	.	[
=78	=78	=78
(>8f	.	<
4ff	.	.
8a-X)	.	[ >
(<8a-L	.	.
8gJ)	.	]
4r	.	.
=79	=79	=79
8r	.	.
4ee-	.	.
[>8dd	.	.
8ddL]	.	.
(>8cc#X	.	.
8cc	.	.
8ee-J)	.	.
!!LO:LB:g=original
=80	=80	=80
8g	.	.
(>4gg	.	>
8b-)	.	]
(<8b-	.	.
4a	.	.
8a'<)	.	.
=81	=81	=81
4a	.	.
(>8.ccL	.	>
16b-Jk)	.	]
8b-L\	.	.
(>16a	.	<
16b-J)	.	.
(>16b-LL	.	.
16ee-)	.	.
(>16ee-	.	.
16ffJJ)	.	[
=82	=82	=82
2.gg-X	.	.
4r	.	.
=83	=83	=83
4r	.	.
!LO:S:s=1:note:problem:note-level slur	!	!
!	!	!LO:DY:rj
(>4e 4G	.	f
8gg 8ccL)	.	.
16bL	.	<
16ccJJ	.	.
16ddLL	.	.
16ee	.	.
16ff	.	.
16ggJJ	.	[[
=84	=84	=84
2aa	.	ff
4aa	.	.
4aa	.	.
=85	=85	=85
(>8aaL	.	.
8gg	.	.
8ff	.	.
8aaJ)	.	.
(>4dd	.	.
4ee)	.	.
!!LO:LB:g=original
=86	=86	=86
8ff	.	.
8r	.	.
2aa^<	.	.
4aa	.	.
=87	=87	=87
(>8aaL	.	.
8gg	.	.
8ff)	.	.
8aaJ	.	.
(>4dd	.	.
4ee)	.	.
=88	=88	=88
4ff	.	.
2ff	.	>
4ff	.	]
=89	=89	=89
4ff	.	p
(>8eeL	.	.
8ffJ	.	.
8ggL	.	.
8ff	.	.
8ee	.	.
8ddJ)	.	.
=90	=90	=90
(>8cc#XL	.	.
8dd	.	.
8ee	.	.
8ddJ	.	<
8ffL	.	.
8cc#	.	.
8dd	.	.
8eeJ)	.	.
=91	=91	=91
(>8ffL	.	f
8ee	.	.
8dd)	.	.
(>8ffJ	.	.
4b)	.	.
(>4cc#Xt>	.	.
16qqbLL/	.	.
16qqcc#JJ	.	.
=92	=92	=92
4dd)	.	.
4r	.	.
4r	.	.
!	!	!LO:DY:rj
(>4bb-yX\	.	p >
!!LO:LB:g=original
=93	=93	=93
4cc#X	.	.
4dd	.	]
4ee	.	.
8ddL	.	.
8eeJ)	.	.
=94	=94	=94
(>4ff	.	.
4ee	.	.
4dd)	.	.
(>4bb-X	.	>
=95	=95	=95
4cc#X)	.	.
(>4dd	.	]
4ee	.	.
8ddL	.	.
8eeJ)	.	.
=96	=96	=96
(>4ff	.	.
4gg)	.	.
(>4aa	.	.
4b)	.	.
=97	=97	=97
(>4cc	.	.
2ccc)	.	.
(>[>4ccc	.	.
=98	=98	=98
4ccc_>	.	[
16cccLL]	.	.
16bb)	.	.
(>16bb	.	.
16cccJJ	.	.
16ddd-XLL	.	.
16ccc)	.	.
16bb-X	.	.
16aa-XJJ	.	.
(>16ggLL	.	.
16ff)	.	.
16bb-	.	.
16aa-JJ	.	.
=99	=99	=99
(>16aa-XLL	.	.
16ggJ)	.	.
8ccJ	.	.
4r	.	.
4r	.	.
4ccc	.	.
!!LO:LB:g=original
=100	=100	=100
(>[>4ccc^<	.	.
16cccLL]	.	.
16ddd)	.	.
16ddd	.	.
16cccJJ	.	.
(>16cccLL	.	.
16bb)	.	.
(>16bb	.	.
16bb-XJJ)	.	.
(>16bb-LL	.	.
16ccc)	.	.
(>16ccc	.	.
16bb-JJ)	.	.
=101	=101	=101
(>16bb-LL	.	.
16aa)	.	.
16aa	.	.
!LO:TX:b:Bi:t=cre_scen_do:problem:dynamics with extention lines	!	!
!	!	!LO:HP:b:Bi:t=cre_scen_do:ext=ud
16aaJJ	.	<
(>16aaLL	.	.
16gg#X)	.	.
16gg#	.	.
16gg#JJ	.	.
(>16gg#LL	.	.
16gg)	.	.
16gg	.	.
16ggJJ	.	.
(>16ggLL	.	.
16ff)	.	.
16ff	.	.
16ffJJ	.	.
=102	=102	=102
(>16ffLL	.	.
16bb-)	.	.
(>16bb-	.	[
16ee-JJ)	.	.
(>16ee-LL	.	.
16dd)	.	.
16dd	.	.
16ddJJ	.	.
(>16ddLL\	.	.
16a)	.	.
16a	.	.
16aJJ	.	.
(<16aLL	.	.
16d)	.	.
(<16c	.	.
16B-JJ)	.	.
!!LO:LB:g=original
=103	=103	=103
!	!	!LO:DY:rj
(<16ALL	.	f
16B-	.	.
16G#X	.	.
16B-JJ)	.	.
(<16ALL	.	.
16d	.	.
16c	.	.
16B-JJ)	.	.
(<16ALL	.	.
16B-	.	.
16G#	.	.
<16B-JJ)	.	.
(<16ALL	.	.
16gn	.	.
16f	.	.
16enJJ)	.	.
=104	=104	=104
[<1d	.	.
=105	=105	=105
8d]	.	.
8r	.	.
4r	.	.
2r	.	.
=106	=106	=106
!LO:TX:a:t=P:'1' in the middle of the bar:problem	!	!
!LO:TX:a:B:t=1	!	!
1r	.	.
=107	=107	=107
2r	.	.
8.r	.	.
16en	.	.
16dLL	.	.
16c#	.	.
16cn	.	.
16B-JJ	.	.
=108	=108	=108
16ALL	.	.
16d	.	.
16f	.	.
16gJJ	.	.
16aLL	.	.
16bn	.	.
16cc	.	.
16cc#XJJ	.	.
16ddLL	.	.
16een	.	.
16ff	.	.
16ggJJ	.	.
16aaLL	.	.
16a	.	.
16bn	.	.
16cc#XJJ	.	.
!!LO:LB:g=original
=109	=109	=109
16ddLL	.	.
16ee	.	.
16ff	.	.
16ggJJ	.	.
16aa\LL	.	.
16aa	.	.
16bb	.	.
16ccc#XJJ	.	.
16dddLL	.	.
16eee	.	.
16fff	.	.
16gggJJ	.	.
8aaa	.	.
!LO:TX:a:B:t=3za.:dur=5he:ext=ut:problem:text with extention lines	!	!
(<[<8a	.	.
=110	=110	=110
8aL]	.	.
8g#X)	.	.
(<8g	.	.
8eeJ)	.	.
(<8eeL	.	.
8f#X)	.	.
(<8f	.	.
8ddJ)	.	.
=111	=111	=111
(>4dd	.	.
8ccL	.	.
8b-J)	.	.
(<8aL	.	.
8e	.	.
8g	.	.
8fJ)	.	.
=112	=112	=112
2d	.	.
2r	.	.
=113	=113	=113
!!LO:TX:a:B:t=1
*>B1	*	*
!LO:TX:b:t=P:'2' under the bar:problem	!	!
1r	.	.
=114	=114	=114
1r	.	.
=115:|!	=115:|!	=115:|!
!!LO:TX:a:B:t=2
*>B2	*	*
!LO:TX:a:t=P:repetition mark is invisible:problem	!	!
!LO:TX:b:t=P:'9' under the bar:problem	!	!
1r	.	.
=116	=116	=116
1r	.	.
=117	=117	=117
1r	.	.
=118	=118	=118
1r	.	.
=119	=119	=119
1r	.	.
=120	=120	=120
1r	.	.
=121	=121	=121
1r	.	.
=122	=122	=122
1r	.	.
=123	=123	=123
1r	.	.
!!LO:LB:g=original
=124	=124	=124
*>C	*	*
!	!	!LO:DY:a:rj
!	!	!LO:HP:a
(<8.cL	.	f >
16dJk)	.	.
(<[<4c	.	]
8cL]	.	.
!LO:TX:a:Bi:t=dolce	!	!
8f	.	.
8e	.	.
8dJ	.	.
=125	=125	=125
8cL)	.	.
(<8f	.	.
8e	.	.
8dJ	.	.
8cL)	.	.
(<8a	.	.
8b-	.	.
8ddJ)	.	.
=126	=126	=126
4cc	.	.
(>8.ddL	.	.
16eeJk)	.	.
4ff	.	.
4gg	.	.
=127	=127	=127
4aa	.	.
(>8.bbL	.	<
16cccJk)	.	.
4ddd	.	.
(>8.cccL	.	.
16dddJk)	.	[[
=128	=128	=128
4.eee	.	f
8fff	.	.
(>[>2eee	.	.
=129	=129	=129
2eeeX]	.	.
2ee	.	.
=130	=130	=130
2.eeX)	.	.
(>8.eeL	.	.
16dd#XJk	.	.
!!LO:LB:g=original
=131	=131	=131
8.ddnL	.	>
16eeJk	.	.
2dd	.	]
4dd-X)	.	pp
=132	=132	=132
(>4dd-X	.	.
4a-X	.	.
4g	.	.
8.a-L	.	.
16fJk)	.	.
=133	=133	=133
(<4.d-X	.	.
8e-)	.	.
2d-	.	.
=134	=134	=134
(<4d-X	.	<
8.e-L	.	.
16fJk)	.	.
(<4g-X	.	.
4a-X)	.	[
=135	=135	=135
!LO:TX:a:Bi:t=ten.	!	!
2an	.	.
4r	.	.
4aa	.	.
=136	=136	=136
(>4aa	.	.
4ff#X)	.	<
(>4bn	.	.
8.ccL	.	.
16aJk)	.	.
=137	=137	=137
(<4.c	.	.
8d)	.	.
(<4c	.	.
4f#X)	.	.
!!LO:LB:g=original
=138	=138	=138
(<4B	.	.
8.c#XL	.	.
16d#XJk)	.	.
(<4e	.	.
4f#X)	.	.
=139	=139	=139
!LO:TX:a:Bi:t=dolce	!	!
(<4g#X	.	.
4e)	.	.
(<4d#X	.	.
8.eL	.	.
16c#XJk)	.	.
=140	=140	=140
(<8BL	.	<
8f#X	.	.
8a	.	.
8cc#XJ)	.	[
(<4.b/	.	>
8a)	.	]
=141	=141	=141
(<[<4g#X	.	.
8g#L]	.	.
8aJ)	.	.
(>8bL	.	<
8cc#X	.	.
8dd#X	.	.
8eeJ)	.	[
=142	=142	=142
(>2.ff	.	.
4g#X)	.	.
=143	=143	=143
4a	.	f
8b-XL	.	<
8ccJ	.	.
8ddL	.	.
8ee	.	.
8ff	.	.
8ggJ	.	[[
!!LO:LB:g=original
=144	=144	=144
4aa	.	.
8r	.	.
(<8a	.	.
8gL	.	.
8qa/	.	.
8g	.	.
8f	.	.
8eJ)	.	.
=145	=145	=145
4d	.	.
8r	.	.
8f	.	.
8gL	.	<
8a	.	.
8b-	.	.
8ccJ	.	.
=146	=146	=146
4.dd	.	[
(<8d	.	.
8cL	.	.
8qd/	.	.
8c	.	.
8B-	.	.
8AJ)	.	.
=147	=147	=147
4G	.	.
4B-	.	.
(<4e-	.	.
8.gL)	.	.
(<16gJk	.	.
=148	=148	=148
4c#X	.	.
8.gL)	.	.
(<16gJk	.	.
4c#	.	.
8.gL)	.	.
(<16gJk	.	.
=149	=149	=149
!	!	!LO:HP:a
(<1c#X)	.	<[
!!LO:LB:g=original
=150	=150	=150
!LO:TX:b:Bi:t=più	!	!
4a) 4e 4c	.	.
4e 4c#X	.	f
4aa 4cc# 4e	.	.
(<8aL	.	.
!LO:TX:a:t=P:note-head-side tuplet number:problem	!	!
24gL	.	.
24f	.	.
24enJJ)	.	.
=151	=151	=151
8.dL	.	.
(>16aJk	.	.
12ddL	.	.
12ff	.	.
12aaJ)	.	.
[<2A	.	.
=152	=152	=152
8.AL]	.	.
(>16aJk	.	.
12ddL	.	.
12ff	.	.
12aaJ)	.	.
(<8dL	.	.
8aJ)	.	.
(>12ddL	.	.
12ee-	.	.
12ffJ)	.	.
=153	=153	=153
4aa	.	.
8ggL	.	.
8ffJ	.	.
(>8eeL	.	.
8dd	.	.
8ff	.	.
8aaJ)	.	.
=154	=154	=154
4ccc	.	.
(>8eee-XL	.	.
8ff#XJ)	.	.
(>8ff#L	.	.
8cccJ)	.	.
(>8cccL	.	.
8ddJ)	.	.
!!LO:PB:g=original
=155	=155	=155
4bb-	.	.
8r	.	.
8b-	.	.
(>8.b-L\	.	.
16aJk)	.	.
(>8.aL	.	.
16eeJk)	.	.
=156	=156	=156
(>8ffL	.	.
8ddJ)	.	.
8.r	.	.
16B-	.	.
(<8.B-L	.	.
16AJk)	.	.
8.AL	.	.
16gJk	.	.
=157	=157	=157
!LO:TX:a:t=P:stem-side tuplet number:problem	!	!
(<12gL	.	.
12.f	.	.
24eJk)	.	.
(<12eL	.	.
12.d	.	.
24cJk)	.	.
(<12cL	.	.
12.B-	.	.
24AJk)	.	.
(<12aL	.	.
12.g	.	.
24fJk)	.	.
=158	=158	=158
4e	.	.
(<8eL	.	.
24dL	.	.
24c	.	.
24BJJ)	.	.
4A	.	.
8BL	.	.
!LO:TX:a:t=P:note-head-side tuplet number:problem	!	!
(<24aL	.	.
24g	.	.
24f#XJJ)	.	.
!!LO:LB:g=original
=159	=159	=159
(<8.enL	.	.
16bnJk)	.	.
(>12bL	.	.
12een	.	.
12ggJ)	.	.
[<2Bny	.	.
=160	=160	=160
8.BnyL]	.	.
16bnJk	.	.
(>12bL	.	.
12een	.	.
12ggJ)	.	.
(>8bbnL	.	.
8een)	.	.
(>8gg	.	.
8aaJ	.	.
=161	=161	=161
4bbn)	.	.
8aaL	.	.
8ggJ	.	.
(>8ff#XL	.	.
8ee	.	.
8gg	.	.
8bbJ)	.	.
=162	=162	=162
4ddd	.	.
(>8fffL	.	.
8gg#XJ)	.	.
(>8gg#L	.	.
8dddJ)	.	.
(>8dddL	.	.
8eeJ)	.	.
=163	=163	=163
(>8eeL	.	.
8cccJ)	.	.
(>8cccL	.	.
8dd#XJ)	.	.
(>8dd#L	.	.
8aaJ)	.	.
(>8aaL	.	.
8bJ)	.	.
!!LO:LB:g=original
=164	=164	=164
8gg	.	.
8r	.	.
(>16gLL	.	.
16cc#X	.	.
16ee	.	.
16ggJJ)	.	.
4gg	.	<
(>8ffL	.	.
8eeJ)	.	.
=165	=165	=165
(>8ffL	.	.
8aa-XJ)	.	.
(>8aa-L	.	.
8bJ)	.	.
(>8bL	.	.
8ffJ)	.	.
(>8ffL	.	.
8gJ)	.	.
=166	=166	=166
4ee-X	.	.
(<16e-LL	.	.
16a	.	.
16cc	.	.
16ee-JJ)	.	.
8ee-	.	.
8r	.	.
4f	.	.
=167	=167	=167
4en	.	ff
!LO:TX:a:Bi:t=stretto	!	!
8AL	.	.
8cJ	.	.
4e	.	.
8aL/	.	.
8ccJ	.	.
=168	=168	=168
4ee	.	.
(>8aaL	.	.
8cccJ)	.	.
4eee	.	.
4aaa	.	.
!!LO:LB:g=original
=169	=169	=169
8.GL	.	.
16gJk	.	.
2g	.	.
4g	.	.
=170	=170	=170
2f#X	.	<
2fn	.	[
=171	=171	=171
(<4en	.	.
8.fL	.	.
16dJk)	.	.
(<4e	.	.
8.fL	.	.
16dJk)	.	.
=172	=172	=172
(<4en	.	.
8.fL	.	.
16dJk)	.	.
(<4e	.	.
8.fL	.	.
16dJk)	.	.
=173	=173	=173
4en	.	.
4Bn	.	.
4e	.	.
4een	.	.
=174	=174	=174
1bbn	.	.
=175	=175	=175
2eeen	.	.
2r	.	.
=176	=176	=176
(<8.enL	.	.
16fJk)	.	.
2.e	.	.
=177	=177	=177
1r	.	.
=178	=178	=178
1r	.	.
=179	=179	=179
1r	.	.
=180	=180	=180
1r	.	.
!!LO:LB:g=original
=181	=181	=181
2dd	.	p
(>4dd'>	.	.
4dd'>)	.	.
=182	=182	=182
1dd	.	.
=183	=183	=183
(>4cc	.	.
4d#X	.	.
4e	.	.
4cc)	.	.
=184	=184	=184
4qqb/	.	.
2.a	.	.
4r	.	.
*kcancel	*	*
=185||	=185||	=185||
*>D	*	*
*k[f#]	*	*
!LO:TX:a:t=P:'1' in the middle of the bar:problem	!	!
!LO:TX:a:B:t=1	!	!
1r	.	.
=186	=186	=186
4r	.	.
!	!	!LO:HP:a
(<8G#XL	.	<
8AJ	.	.
4B	.	.
8cL	.	.
8BJ)	.	.
=187	=187	=187
(<8BL	.	.
8AJ	.	.
2e)	.	[
4r	.	.
=188	=188	=188
4r	.	.
!	!	!LO:HP:a
(<8A#XL	.	<
8BJ	.	.
4c#X	.	.
8dL	.	.
8c#J)	.	.
=	=	=
(<8c#XL	.	.
8BJ.	.	.
4.f#)	.	[
(>8ff#L	.	.
8gg	.	.
8ff#J	.	.
!!LO:LB:g=original
=189	=189	=189
8eeL	.	.
8ff#J	.	.
4dd)	.	.
8r	.	.
8ddL	.	.
8ee	.	.
>8ff#J	.	.
=190	=190	=190
8gg	.	.
4cc	.	.
4a#X	.	.
4b	.	.
8cc#X	.	.
=191	=191	=191
(>8.cc#XL	.	.
16dd	.	.
8.b	.	.
16eeJ)	.	.
(>4dd	.	.
4ccn)	.	.
=192	=192	=192
(<4.b/	.	.
8b-X/	.	.
8aL	.	.
8g#X	.	.
8g	.	.
8bJ)	.	.
=193	=193	=193
8d	.	.
(>4dd^<	.	.
8f)	.	.
(<8fL	.	.
8eJ)	.	.
4r	.	.
=194	=194	=194
8r	.	.
(>4cc	.	.
[>8b	.	.
8bL]\	.	.
8a#X	.	.
8a	.	.
8ccJ)	.	.
!!LO:LB:g=original
=195	=195	=195
8e	.	.
(>4ee	.	.
(<[<8g)	.	.
8g]	.	.
4f#	.	.
8f#)	.	.
=196	=196	=196
4f#	.	.
!LO:TX:a:t=P:diminuendolike accent:problem	!	!
(<8.a^<L	.	.
16gJk)	.	.
8gL	.	.
16f#	.	<
16gJ	.	.
16aLL/	.	.
16b	.	.
16cc	.	.
16ddJJ	.	[
=197	=197	=197
2ee	.	.
2r	.	.
=198	=198	=198
4r	.	.
!	!	!LO:DY:rj
4c	.	f
8a 8fn 8c	.	.
16eeLL	.	.
16ffnJJ	.	.
16ggLL	.	.
16aa	.	.
16bb-X	.	.
16cccJJ	.	.
*kcancel	*	*
=199||	=199||	=199||
*>E	*	*
*k[b-e-]	*	*
2ddd	.	ff
4ddd	.	.
4ddd	.	.
=200	=200	=200
(>8dddL	.	.
8ccc	.	.
8bb-	.	.
8dddJ)	.	.
(>4gg	.	.
4aa	.	.
!!LO:LB:g=original
=201	=201	=201
8bb-)	.	.
8r	.	.
2ddd	.	.
4ddd	.	.
=202	=202	=202
(>8dddL	.	.
8ccc	.	.
8bb-)	.	.
(>8dddJ	.	.
4gg)	.	.
(>4aat>	.	.
16qqgg/LL	.	.
16qqaaJJ	.	.
=203	=203	=203
4bb-)	.	.
2bb-	.	>
4bb-	.	]]
=204	=204	=204
(>4bb-	.	p
8aaL	.	.
8bb-J	.	.
8cccL	.	.
8bb-	.	.
8aa	.	.
8ggJ)	.	.
=205	=205	=205
(>8ff#XL	.	.
8gg	.	.
8aa	.	.
8ggJ	.	<
8bb-L	.	.
8ff#	.	.
8gg	.	.
8aaJ)	.	[
=206	=206	=206
(>8bb-L	.	f[
8aa	.	.
8gg)	.	.
(>8bb-J	.	.
4een)	.	.
4ff#Xt>	.	.
16qqee/LL	.	.
16qqff#JJ	.	.
=207	=207	=207
4gg	.	.
4r	.	.
4r	.	.
!LO:TX:a:B:t=3za.:dur=13q:ext=ud:problem:text with extention lines	!	!
(<4ee-	.	p
!!LO:LB:g=original
=208	=208	=208
4f#X	.	.
4g	.	.
4a	.	.
8gL	.	.
8aJ)	.	.
=209	=209	=209
(<4b-/	.	.
4a	.	.
4g)	.	.
(<4ee-	.	.
=210	=210	=210
4f#X	.	.
4g	.	.
4a	.	.
8gL	.	.
8aJ)	.	.
=211	=211	=211
4b-	.	.
4cc	.	.
4dd	.	.
4e	.	.
=212	=212	=212
4f	.	.
2ff	.	.
(>[>4ff	.	.
=213	=213	=213
4ff_>	.	.
16ffLL]	.	.
16ee)	.	.
(>16ee	.	.
16ffJJ	.	.
16gg-XLL	.	.
16ff	.	.
16ee-X	.	.
16dd-XJJ	.	.
16ccLL	.	.
16b-	.	.
16ee-	.	.
16dd-JJ)	.	.
=214	=214	=214
(>16dd-XLL	.	.
16ccJ)	.	.
8fJ	.	.
4r	.	.
4r	.	.
4ff	.	.
!!LO:LB:g:original
=215	=215	=215
(>[>4ff	.	.
16ffLL]	.	.
16gg)	.	.
(>16gg	.	.
16ffJJ)	.	.
(>16ffLL	.	<
16ee)	.	.
(>16ee	.	.
16ee-XJJ)	.	.
(>16ee-LL	.	.
16ff)	.	.
(>16ff	.	.
16ee-JJ)	.	.
=216	=216	=216
(>16ee-LL	.	.
16dd)	.	.
16dd	.	.
16ddJJ	.	.
(>16ddLL	.	.
16cc#X)	.	.
16cc#	.	.
16cc#JJ	.	.
(>16cc#LL	.	.
16cc)	.	.
16cc	.	.
16ccJJ	.	.
(>16ccLL	.	.
16b-)	.	.
16b-	.	.
16b-JJ	.	.
=217	=217	=217
(>16b-LL	.	.
16ee-)	.	.
(>16ee-	.	.
16a-XJJ)	.	.
(<16a-LL	.	.
16g)	.	.
16g	.	.
16gJJ	.	.
(<16gLL	.	.
16d)	.	.
16d	.	.
16dJJ	.	.
(<16dLL	.	.
16g	.	.
16b-	.	.
16cc#XJJ)	.	.
!!LO:LB:g=original
=218	=218	=218
(>16ddLL	.	f
16ee-	.	.
16cc#X	.	.
16ee-JJ)	.	.
(>16ddLL	.	.
16gg	.	<
16ff	.	.
16ee-JJ)	.	.
(>16ddLL\	.	.
16b-	.	.
16a	.	.
16gJJ)	.	.
16dLL	.	.
16cn	.	[
16B-	.	.
16AJJ	.	.
=219	=219	=219
1G	.	.
=220	=220	=220
1G	.	.
=221	=221	=221
4G	.	.
2G	.	.
!LO:TX:a:t=P:stem-side tuplet number:problem	!	!
(<12G'<L	.	.
12G'<	.	.
12G'<J)	.	.
=222	=222	=222
4G	.	.
(<12G'<L	.	.
12G'<	.	.
12G'<J)	.	.
4G	.	.
(<16G'<LL	.	.
16G'<	.	.
16G'<	.	.
16G'<JJ)	.	.
=223	=223	=223
(<16GLL	.	.
16A)	.	.
16B-	.	.
16cJJ	.	.
16dLL	.	.
16e	.	.
16f	.	.
16f#XJJ	.	.
16gLL	.	.
16a	.	.
16b-	.	.
16ccJJ	.	.
16ddLL	1	.
16ee	.	.
16ffn	.	.
16ff#XJJ	.	.
!!LO:LB:g=original
=224	=224	=224
16ggLL	.	.
16aa	.	.
16bb-	1	.
16cccJJ	.	.
16dddLL	1	.
*8va	*	*
16ddd	.	.
16eee	.	.
16fff#XJJ	1	.
16gggLL	.	.
16aaa	1	.
16bbb-	.	.
16ccccJJ	.	.
8ddddL	.	.
*X8va	*	*
!LO:TX:a:B:t=2da.:dur=7q:ext=ut:problem:text with extention lines	!	!
8ddJ	.	.
=225	=225	=225
(>8ddL	.	.
8cc#X)	.	.
(>8cc	.	.
8aaJ)	.	.
(>8aaL	.	.
8b)	.	.
(>8b-X	.	.
8ggJ)	.	.
=226	=226	=226
(>4gg	.	.
8ffL	.	.
8ee-J	.	.
8ddL)	.	.
(>8a	.	.
8cc	.	.
8b-J	.	.
=227	=227	=227
8gL)	.	.
!	!	!LO:DY:a:rj
(>8ff	.	p
8ee	.	.
8ee-XJ	.	.
8ddL)	.	.
(>8a	.	.
8cc	.	.
8b-J	.	.
!!LO:LB:g=original
=228	=228	=228
!LO:TX:a:t=P:mixed beam:problem	!	!
8gL)/	.	.
(>8bb-\	.	f
8gg\	.	.
8ee-J\	.	.
!LO:TX:a:t=P:mixed beam:problem	!	!
8ddL)\	.	.
(<8d/	.	.
8B-/	.	.
8AJ)/	.	.
=229	=229	=229
[<1G	.	.
=230	=230	=230
8.GL]	.	.
(<16dJk	.	.
!LO:TX:a:t=P:note-head-side tuplet number:problem	!	!
12gL/	.	.
12b-	.	.
12ddJ)	.	.
[<2G	.	.
=231	=231	=231
8.GL]	.	.
(>16dJk	.	.
12b-L	.	.
12dd	.	.
12ggJ)	.	.
[<2d	.	.
=232	=232	=232
4d]	.	.
!LO:TX:a:Bi:t=rall.	!	!
(<4B-	.	.
4A	.	.
4G)	.	.
=233	=233	=233
[<1d	.	<[
=234	=234	=234
!LO:TX:a:B:t=a tempo	!	!
4d]	.	>]
4r	.	.
4r	.	.
4ff# 4a 4d	.	ff
=235	=235	=235
4gg 4b- 4d 4G	.	.
4r	.	.
2r	.	.
==	==	==
*-	*-	*-
!!title: @{OTL}; @{OPS} @{ONM} publisher: @{PPR}
!!!RDF**kern: > = above
!!!RDF**kern: < = below
!!!RDF**kern: N = linked
!!!RDF**dynam: < = "cresc.", fontstyle= "bold-italic"
!!!RDF**dynam: > = "dim.", fontstyle= "bold-italic"
!!!ENC: Wojciech Jakubiak-Danek
!!!END: 2020-04-27
!!!EED:
!!!EST:
